X: 29
T:Belle Isle's March, Longborough
M:4/4
L:1/8
A:Longborough
P:A(AB2)5A
K:G
P:A
|:D|G2G>B A2A>c|B2ge  d3c |BdBG  AcAF|G2G>G G3:|
P:B
z|d>edc B2B2 |c>dcB A2A2|d>edc B2B2|c>dcB A4|
G2G>B A2A>c|B2ge  d3c |BdBG  AcAF|G2G>G G3||
